X:27
T:Yellow hair’d Laddie,The,2voices. JGi.027
M:3/4
L:1/8
Q:3/4=35
S:Joshua Gibbons MS,1823,Tealby,Lincs.
R:Air
O:Tealby,Lincolnshire
Z:VMP/R.Greig, 2009
K:F
[V:1]|:F>G|A2c2d>e|f3ga2|c2d/c/B/A/2|{A}G4F>G|
[V:2]|:A,>C|F2A2B2|c3cc2|A2B/A/G/F/|{F}E4A,C|
[V:1]A2c2d>e|f>efga2|cdcA G>A|F4:|
[V:2]F2A2B2|A>GA>Bc2|ABAGE2|F4:|
[V:1]|:f>a|a2b>ag>f|e>f gedc|d>e fdcB|
[V:2]|:A>c|f2g>fe>d|c>dec BA|B2dB{B}AG|
[V:1]{A}G4F>G|A2c2d>e|f>ef>ga2|c2b>ag>f|f4:|
[V:2]{F}E4A,C|F2A2B2|A>GA>Bc2|A2g>fB2|A4:|

